resources/svg/folder-zip-line.svg

<svg fill="currentColor" viewBox="0 0 24 24" xmlns="http://www.w3.org/2000/svg"><path d="M10.4142 3L12.4142 5H21C21.5523 5 22 5.44772 22 6V20C22 20.5523 21.5523 21 21 21H3C2.44772 21 2 20.5523 2 20V4C2 3.44772 2.44772 3 3 3H10.4142ZM18 18H14V15H16V13H14V11H16V9H14V7H11.5858L9.58579 5H4V19H20V7H16V9H18V11H16V13H18V18Z"/></svg>

<svg xmlns="http://www.w3.org/2000/svg" viewBox="0 0 24 24" fill="currentColor">
    <g>
        <path fill="none" d="M0 0h24v24H0z"/>
        <path fill-rule="nonzero" d="M10.414 3l2 2H21a1 1 0 0 1 1 1v14a1 1 0 0 1-1 1H3a1 1 0 0 1-1-1V4a1 1 0 0 1 1-1h7.414zM18 18h-4v-3h2v-2h-2v-2h2V9h-2V7h-2.414l-2-2H4v14h16V7h-4v2h2v2h-2v2h2v5z"/>
    </g>
</svg>
